X:7865
T:Walking by Moonlight
O:england
B:Joyce, P. W.; "Old Irish Folk Music and Songs"
R:jig
L:1/8
M:6/8
K:D
ABc d2 d|d2 d dec3/4A/4|ABc d2 d|edc BcA|
ABc d2 d|fef gfg|agf edc|d3 d3||
a2 f gfg|a3 d3|e2 e efd|B3 A3|
Bcd ede|fef gfg|agf edc|d3 d3||


